assets/js/back-end/assets/icons/fill-in-the-blanks.svg

<svg fill="none" height="28" viewBox="0 0 28 28" width="28" xmlns="http://www.w3.org/2000/svg" xmlns:xlink="http://www.w3.org/1999/xlink"><clipPath id="a"><path d="m12.1889 4.66675h13.8667v13.8667h-13.8667z"/></clipPath><rect fill="#ff9066" height="28" rx="3" width="28"/><g clip-path="url(#a)"><path d="m14.5778 15.3943c.0468 0 .0936-.0057.1398-.0173l2.3111-.5778c.1017-.0254.1947-.078.2687-.1519l7.1026-7.10264c.2184-.2184.3386-.50845.3386-.81698s-.1202-.59858-.3386-.81698l-.9164-.91635c-.4368-.4368-1.1971-.4368-1.6339 0l-7.1026 7.10265c-.074.074-.1265.1666-.152.2681l-.5778 2.3111c-.0213.0852-.023.1741-.0048.26s.0557.1666.1098.2358c.054.0693.1231.1253.202.1638.079.0385.1656.0585.2535.0585zm8.0889-9.58297.9163.91635-.9163.91636-.9164-.91636zm-6.9894 6.98937 5.256-5.25604.9164.91635-5.2566 5.25609-1.2215.305z" fill="#fff"/></g><path d="m4.66663 20.0001h17.49997" stroke="#fff" stroke-width="2"/></svg>

<?xml version="1.0" encoding="UTF-8" standalone="no"?>
<!DOCTYPE svg PUBLIC "-//W3C//DTD SVG 1.1//EN" "http://www.w3.org/Graphics/SVG/1.1/DTD/svg11.dtd">
<svg width="100%" height="100%" viewBox="0 0 28 28" version="1.1" xmlns="http://www.w3.org/2000/svg" xmlns:xlink="http://www.w3.org/1999/xlink" xml:space="preserve" xmlns:serif="http://www.serif.com/" style="fill-rule:evenodd;clip-rule:evenodd;stroke-linejoin:round;stroke-miterlimit:2;">
    <path d="M28,3C28,1.344 26.656,0 25,0L3,0C1.344,0 0,1.344 0,3L0,25C0,26.656 1.344,28 3,28L25,28C26.656,28 28,26.656 28,25L28,3ZM4.667,21L22.167,21L22.167,19L4.667,19L4.667,21ZM14.578,15.394C14.625,15.394 14.671,15.389 14.718,15.377L17.029,14.799C17.13,14.774 17.223,14.721 17.297,14.647L24.4,7.545C24.618,7.326 24.739,7.036 24.739,6.728C24.739,6.419 24.618,6.129 24.4,5.911L23.484,4.994C23.047,4.558 22.287,4.558 21.85,4.994L14.747,12.097C14.673,12.171 14.621,12.264 14.595,12.365L14.017,14.676C13.996,14.761 13.994,14.85 14.013,14.936C14.031,15.022 14.068,15.103 14.122,15.172C14.176,15.241 14.245,15.297 14.324,15.336C14.403,15.374 14.49,15.394 14.578,15.394ZM15.677,12.801L20.933,7.545L21.85,8.461L16.593,13.717L15.372,14.022L15.677,12.801ZM22.667,5.811L23.583,6.728L22.667,7.644L21.75,6.728L22.667,5.811Z" style="fill:rgb(255,144,102);"/>
</svg>
